svgs/sharp-solid/window-frame-open.svg

<svg xmlns="http://www.w3.org/2000/svg" viewBox="0 0 512 512"><!--! Font Awesome Pro 6.6.0 by @fontawesome - https://fontawesome.com License - https://fontawesome.com/license (Commercial License) Copyright 2024 Fonticons, Inc. --><path d="M480 64l0 160 0 64-64 0L96 288l-64 0 0-64L32 64 32 0 96 0 416 0l64 0 0 64zM232 64L96 64l0 160 136 0 0-160zm48 0l0 160 136 0 0-160L280 64zM96 448l320 0 0-128 64 0 0 128 32 0 0 64-32 0-32 0L64 512l-32 0L0 512l0-64 32 0 0-128 64 0 0 128z"/></svg>

<svg xmlns="http://www.w3.org/2000/svg" viewBox="0 0 512 512"><!--! Font Awesome Pro 6.4.0 by @fontawesome - https://fontawesome.com License - https://fontawesome.com/license (Commercial License) Copyright 2023 Fonticons, Inc. --><path d="M480 64V224v64H416 96 32V224 64 0H96 416h64V64zM232 64H96V224H232V64zm48 0V224H416V64H280zM96 448H416V320h64V448h32v64H480 448 64 32 0V448H32V320H96V448z"/></svg>
